X:1
T:Epitaph of Seikilos
C:Anonymous, c. 1st century CE
M:4/4
L:1/4
Q:1/4=80
K:Amix
A A G E | F A A2 | B A G E | G F E2 |
E E F G | A c B A | G E F D | E4 |]
